!!!COM:	Bach, Johann Sebastian
!!!CDT:	1685/02/21/-1750/07/28/
!!!OTL@@DE:	Warum betr&uuml;bst du dich, mein Herz
!!!SCT:	BWV 420
!!!PC#:	145
!!!AGN:	chorale
**kern	**kern	**kern	**kern
*ICvox	*ICvox	*ICvox	*ICvox
*Ibass	*Itenor	*Ialto	*Isoprn
*I"Bass	*I"Tenor	*I"Alto	*I"Soprano
*clefF4	*clefGv2	*clefG2	*clefG2
*k[]	*k[]	*k[]	*k[]
*a:	*a:	*a:	*a:
*M4/4	*M4/4	*M4/4	*M4/4
*met(c)	*met(c)	*met(c)	*met(c)
*MM100	*MM100	*MM100	*MM100
4AA	4c	4e	4a
=1	=1	=1	=1
8AL	8cL	4e	8aL
8G#J	8BJ	.	8bJ
4A	4A	4e	4cc
8EL	4G#	4.e	4b
8DJ	.	.	.
4C	4A	.	4ee
.	.	8f#	.
=2	=2	=2	=2
4BB	4B	4g#	4dd
4AA	8cL	4a	4cc
.	8dJ	.	.
4E;	4e;	4g#;	4b;
4AA	8eL	8aL	8ccL
.	8dJ	8g#J	8bJ
=3	=3	=3	=3
[4A	8cL	4a	4a
.	8BJ	.	.
8AL]	4c#	4a	4ee
8GJ	.	.	.
8FL	8dL	4a	4dd
8E	8cJ	.	.
8D	8B-L	[4gnX	4ee
8C#J	8AJ	.	.
=4	=4	=4	=4
4D	4A	8gL]	8aL
.	.	8fJ	8bnXJ
4AA	4A	4e	4cc#
4DD;	4A;	4f;	4dd;
4AA	4A	4e	4cc
=5	=5	=5	=5
8EL	4G#	4e	4b
8D	.	.	.
8C	8AL	8eL	4ee
8EJ	8G#J	8bJ	.
8F#L	8AL	8cc	8eeL
8G#J	8B	4b	8ddJ
4A	8c	.	4cc
.	8dJ	8a	.
=6	=6	=6	=6
2.E;	2.e;	2.g#;	2.b;
4AA	8cL	4e	8aL
.	8BJ	.	8bJ
=7	=7	=7	=7
8AL	4A	4e	4cc
8GnX	.	.	.
8F	4A	8fL	4cc
8EJ	.	8gnXJ	.
8FL	8AL	8aL	4dd
8D	16BL	8fJ	.
.	16cJJ	.	.
8G	4B	4g	4dd
8FJ	.	.	.
=8	=8	=8	=8
8EL	4c	4g	4ee
8DJ	.	.	.
4C	4c	4g	8eeL
.	.	.	8ddJ
4F;	4c;	4a;	4cc;
8CL	4c	8gL	4ee
8BBJ	.	8aJ	.
=9	=9	=9	=9
8AAL	8fL	4b	4dd
8GG#	8eJ	.	.
8AA	4e	4a	4cc
8GGJ	.	.	.
8FFL	4d	4g#	4b
8EE	.	.	.
8FF	8cL	4a	8aL
8DDJ	8fJ	.	8bJ
=10	=10	=10	=10
2EE	8eL	8aL	4cc
.	8AJ	8f#J	.
.	8BL	4g#	4b
.	8dJ	.	.
4AA;	4c#;	4e;	4a;
==	==	==	==
*-	*-	*-	*-
!!!hum2abc: -Q ''
!!!title: @{PC#}. @{OTL@@DE}
!!!YOR1: 371 vierstimmige Choralges&auml;nge von Johann Sebastian Bach, 
!!!YOR2: 4th ed. by Alfred D&ouml;rffel (Leipzig: Breitkopf und H&auml;rtel, 
!!!YOR2: c.1875). 178 pp. Plate "V.A.10".  reprint: J.S. Bach, 371 Four-Part 
!!!YOR4: Chorales (New York: Associated Music Publishers, Inc., c.1940).
!!!SMS: B&H, 4th ed, Alfred D&ouml;rffel, c.1875, plate V.A.10
!!!EED:  Craig Stuart Sapp
!!!EEV:  2009/05/22
